!!!!SEGMENT: pl-kk--kk-i-11--003_lilius-franciszek--gloria-laus-et-honor.krn
!!!cenid: 16xx:1241
!!!COM: Lilius, Franciszek
!!!COM-rismid: pe30020509
!!!CDT: ~1600-1657
!!!CNT: Polish
!!!OTL: Gloria laus et honor
!!!PDT:
!!!AGN: Sacred
!!!SMS-siglum: PL-Kk
!!!SMS-shelfmark: Kk.I.11
!!!SMS-shelfwork: 003 W
!!!SMS-variant:
!!!SMS-altvar:
!!!NIFC-rismid: 1001154135
!!!URL-scan: http://repozytorium.nifc.pl/skany/pl-kk-nut--i-11
!!!ONB-nifc: UWAGA: skan 0012 (tylko org)
**kern
*I"Organo
*I'Org.
*clefF4
*k[]
*d:
*M2/1
*met(c|)
*lig
=1-
!LO:TX:a:t=1651. [nieczytelne] Pro Dominica Palmar(um) a 4 F.L. Pro Org.
!LO:TX:b:t=Gloria Laus.
1AA
1E
*Xlig
=2-
1F
1C
=3-
2FF/
2.FF/
4GG/
4AA/
4BB/
=4-
4C/
4D/
4E\
4C/
1D
=5-
2C/
2.C/
4D/
!LO:TX:t=P:problem:2\right:global
2E\
=6-
1F
1C
=7-
1D
1AA
=8-
!LO:SIC:v:t=custos “C”
1D
!LO:LB:g=original
2.C/
4D/
=9-
2E\
1G
!LO:TX:b:t=P:problem:# below
2F#X\
=10-
2G\
2GG/
1C
=11-
1FF
1.D
=12-
.
4C#X/
4BB/
!LO:TX:a:t=P:problem:# above
2C#X/
2D/
=13-
2.AA/
4BB/
1C
=14-
1D
0C
=15-
.
2FF/
2F\
=16-
2E\
2C/
1D
=17-
1AA
!LO:SIC:v:t=custos “BB”
1D
!LO:LB:g=original
=18-
2BB/
2GG/
2.C/
4BB/
=19-
1AA
1BB-X
=20-
1GG
1AA
=21-
1D
2r
2D/
=22-
2GG/
2FF#X/
1GG
=23-
0D;<
!LO:LB:g=original
=24-
*M2/1
*met(c|)
!LO:TX:b:t=Israel es
!LO:TX:a:t=d
0D
=25-
1AA
1D
=26-
0C
=27-
1.G
2E\
=28-
2D/
1AA
2E\
=29-
1F
1E
=30-
1.AA
1FF/
=31-
.
2C/
2F\
2D/
=32-
1C
1G
=33-
1D
1GG
=34-
1D
2D/
2BB/
=35-
1AA
2E\
2F\
=36-
1E
!LO:N:vis=0
1AA;;
!LO:LB:g=original
=37-
*M2/1
*met(c|)
!LO:TX:b:t=Caet(us) in excelſis
1.D
2D/
=38-
1A
1D
=39-
1C
=40-
*M3/1
0G
1E
=43-
0D
1AA
=44-
0E
1F
=45-
0.E
=46-
0.AA
=47-
0FF
1C
=48-
0F
1D
=49-
0C
1G
=50-
0.D
=51-
0.GG
=52-
1G
1F
1D
=53-
1C
1GG
1AA
=54-
0E
!LO:N:vis=0
1AA;;
!LO:LB:g=original
=55-
*M2/1
*met(c|)
!LO:TX:b:t=Plebs Hebraea
0D
=56-
1AA
1D
=57-
0C
=58
2G\
1G
2E\
=59-
2D/
1AA
2E\
=60-
1F
1E
=61-
1AA
1FF
=62-
2FF/
2C/
2F\
2D/
=63-
1C
1G
=64-
1D
1GG
=65-
1D
2D/
2BB/
=66-
1AA
2E\
2F\
=67-
1E
0.AA;;
=68-
.
!LO:LB:g=original
=69-
*M2/1
*met(c|)
!LO:TX:b:t=Hi Tibi paſsuro
0D
=70-
1A
1D
=71-
1C
=72-
*M3/1
0G
1E
=73-
0D
1AA
=74-
0E
1F
=75-
0.E
=76-
0.AA
=77-
0FF
1C
=78-
0F
1D
=79-
2C/
2D/
2E\
2F\
1G
=80-
0D
0.GG
=81-
.
1G
=82-
1F
!LO:SIC:v:t=custos “C”
1D
!LO:LB:g=original
1C
=83-
1GG
1AA
0.E
=84-
.
0AA;
=85||-
*M2/1
*met(c|)
!LO:TX:b:t=Hi placuére
0D
=86-
1AA
2.D/
4D/
=87-
1C
1.G
=88-
.
2E\
2D/
1AA/
=89-
.
2E\
1F
=90-
1E
!LO:SIC:v:t=custos “FF”
1AA
!LO:LB:g=original
=91-
2r
2FF/
2FF/
2C/
=92-
2F\
2D/
4C/
4D/
4E\
4F\
=93-
1G
1D
=94-
1GG
2r
2D/
=95-
2D/
2BB/
4AA/
4BB/
4C/
4D/
=96-
2E\
2F\
1E
=97-
!LO:TX:b:t=Gloria\nLaus\nVt ſupra.
0AA;
==-
*-
!!!RDF**kern: > = above
!!!RDF**kern: < = below
!!!ENC: Kamil Watkowski
!!!END: 2021-07-09
